X:1
T: Stack the Rags
C:
R:Jig
Q:180
K:Dm
M:6/8
L:1/16
d2|:c2A2G2 G4^F2|D4G2 G6|c2A2G2 G4G2|f6 e4d2|
c2A2G2 G4^F2|D4G2 G6|F4G2 A4B2|c6 d6:|
G4g2 g6|^f2a2f2 g6|G4g2 g6|f6 e4d2|
G4g2 g6|^f2a2f2 g6|a2b2a2 a4g2|f6 d4c2|
d4g2 g6|^f2a2f2 g6|d4g2 g4e2|f6 f4g2|
a2g2f2 g2f2e2|f2e2d2 f4d2|c2A2G2 G4G2|f6e4||
